X:1
T: Eagle Hall
C:play  AABA                   Muriel A Johnstone
R:Strathspey
%Q: 128
K:A
M:4/4
L:1/16
|:|:"A"cA3 A4 B3A GB3|cA3 A4 F3E Fd3|cA3 A4 B3A GB3|1AF3 E3F A4 A3d:|2AF3 E3F A4 A3B|
ca3 da3 ea3 a3f|ec3 c3A ((3Bcd) c3B|ca3 da3 ea3 a3f|ec3 B3c e4 e3d|
ca3 da3 ea3 a3f|ec3 c3A B3A FA3|cA3 A4 B3A FA3|1FE3 E3F A4 A3d:|2FE3 A3F E4 A3B|
K:Am
|:"B"cA3 A4 B3A GB3|cA3 A4 GE3 E3B|cA3 A4 B3A GB3|A3G EG3 A4 A3B:|
ca3 da3 ea3 A3c|Bg3 G3c BcdB G3B|ca3 fa3 ea3 A3c|BG3 E3G A4 A3B|
ca3 da3 ea3 A3c|Bg3 G3c BcdB G3B|cA3 A4 B3A GB3|A3G EG3 A4 A3d||
